X:19
T:Pleyels Fancy. Tho24CDs1792.19
T:Steamboat,aka. Tho24CDs1792.19
M:2/4
Q:1/4=100
C:"91"
L:1/16
N:1st strain as in Steamboat Hornpipe
W: The 3 Ladies lead Round the 3 Gents .|
W: the Gents do the same :|
W: Lead down the middle up again & cast off :|.
W:Hands 6 quite Round :|
B:Thompson 24 CDs 1792
Z:Village Music Project, Anne Wride, 2017
K:E
|:B2|e2ge B2eB|G2BG E2B2|(cBcd) eB(AG)|(G4F2)B2|
e2ge B2eB|G2BG E2B2|c2af e2d2|e4 !fine!E2:|
|:ef|gfeg fedf|edce dcBd|efgf edcB|^ABcA F2F2|
(B^A)(cB) (dc)(ed)|gfga bfdB|db^ag fedc|B4-!D.C.!B2|]

